assets/img/braze_icons/building-01.svg

<svg fill="none" height="24" viewBox="0 0 24 24" width="24" xmlns="http://www.w3.org/2000/svg"><path clip-rule="evenodd" d="m8.16146 2h7.67704c.5272-.00002.982-.00003 1.3565.03057.3954.0323.7886.10362 1.167.29641.5645.28762 1.0234.74657 1.311 1.31105.1928.37838.2641.7716.2964 1.16695.0306.37454.0306.82938.0306 1.35648v13.83854h1c.5523 0 1 .4477 1 1s-.4477 1-1 1h-18c-.55228 0-1-.4477-1-1s.44772-1 1-1h1v-13.83854c-.00002-.52715-.00003-.98191.03057-1.35648.0323-.39535.10362-.78857.29641-1.16695.28762-.56448.74656-1.02343 1.31105-1.31105.37838-.19279.7716-.26411 1.16694-.29641.37456-.0306.82937-.03059 1.35649-.03057zm-.16146 6c0-.82843.67157-1.5 1.5-1.5.8284 0 1.5.67157 1.5 1.5s-.6716 1.5-1.5 1.5c-.82843 0-1.5-.67157-1.5-1.5zm5.4 6h-2.8c-.5601 0-.84008 0-1.05399.109-.18816.0959-.34114.2488-.43702.437-.10899.2139-.10899.4939-.10899 1.054v4.4h6v-4.4c0-.5601 0-.8401-.109-1.054-.0959-.1882-.2488-.3411-.437-.437-.2139-.109-.4939-.109-1.054-.109zm1.1-7.5c-.8284 0-1.5.67157-1.5 1.5s.6716 1.5 1.5 1.5 1.5-.67157 1.5-1.5-.6716-1.5-1.5-1.5z" fill="#801ed7" fill-rule="evenodd"/></svg>

<svg width="24" height="24" viewBox="0 0 24 24" fill="none" xmlns="http://www.w3.org/2000/svg">
<path fill-rule="evenodd" clip-rule="evenodd" d="M8.16146 2H15.8385C16.3657 1.99998 16.8205 1.99997 17.195 2.03057C17.5904 2.06287 17.9836 2.13419 18.362 2.32698C18.9265 2.6146 19.3854 3.07355 19.673 3.63803C19.8658 4.01641 19.9371 4.40963 19.9694 4.80498C20 5.17952 20 5.63436 20 6.16146V20H21C21.5523 20 22 20.4477 22 21C22 21.5523 21.5523 22 21 22H3C2.44772 22 2 21.5523 2 21C2 20.4477 2.44772 20 3 20H4L4 6.16146C3.99998 5.63431 3.99997 5.17955 4.03057 4.80498C4.06287 4.40963 4.13419 4.01641 4.32698 3.63803C4.6146 3.07355 5.07354 2.6146 5.63803 2.32698C6.01641 2.13419 6.40963 2.06287 6.80497 2.03057C7.17953 1.99997 7.63434 1.99998 8.16146 2ZM8 8C8 7.17157 8.67157 6.5 9.5 6.5C10.3284 6.5 11 7.17157 11 8C11 8.82843 10.3284 9.5 9.5 9.5C8.67157 9.5 8 8.82843 8 8ZM13.4 14H10.6C10.0399 14 9.75992 14 9.54601 14.109C9.35785 14.2049 9.20487 14.3578 9.10899 14.546C9 14.7599 9 15.0399 9 15.6V20H15V15.6C15 15.0399 15 14.7599 14.891 14.546C14.7951 14.3578 14.6422 14.2049 14.454 14.109C14.2401 14 13.9601 14 13.4 14ZM14.5 6.5C13.6716 6.5 13 7.17157 13 8C13 8.82843 13.6716 9.5 14.5 9.5C15.3284 9.5 16 8.82843 16 8C16 7.17157 15.3284 6.5 14.5 6.5Z" fill="#801ED7"/>
</svg>
